X:5477
T:Reed House Rant
O:england
M:6/4
L:1/4
S:Henry Atkinson 1694/5 transcribed John Stokoe 1883
N:Clef missing, also 1st note, bar 9
K:D major
BAGF>ED|fede2E|BAGF>ED|fed/2c/2d2D|BAGF>ED|agae2E|BAGF>EDfed/2c/2d2D||BA
GAD2|BAGcE2|BAG(FG)A|B/2c/2d/2c/2d/2e/2d2D||


